X: 17699
T: Holy Land, The
R: reel
M: 4/4
K: Dmajor
|:A|"G"B4 "A"A2Bc|"D"dF F2DFA=c|"G"BGGF GABd|"A7"eaag "D"fdd:|
e|"D"f2df dfaf|"Em"gfed "A7"cdeg|"D"f2df dfaf|"A7"gfeg "D"fdde|
"D"f2df dfaf|"Em"gfed "A"cdef|"D"dfaf "G"g2bg|"A"afeg "D"fdd||

